img/icon/picture.svg

<svg xmlns="http://www.w3.org/2000/svg" width="100" height="100" viewBox="0 0 100 100"><path fill="#2394BC" d="M50 0c27.614 0 50 22.386 50 50s-22.386 50-50 50-50-22.386-50-50 22.386-50 50-50z"/><path fill="#EDEDED" d="M15.592 31.141l51.129-13.699c1.613-.433 3.27.514 3.698 2.114l10.093 37.667c.43 1.601-.531 3.248-2.145 3.681l-51.129 13.7c-1.613.432-3.27-.515-3.698-2.115l-10.093-37.668c-.429-1.6.532-3.248 2.145-3.68z"/><path fill="#4681A0" d="M19.78 34.137l44.78-11.999c1.237-.331 2.508.4 2.838 1.634l8.382 31.28c.331 1.233-.403 2.503-1.641 2.834l-44.78 11.999c-1.236.332-2.508-.4-2.838-1.635l-8.381-31.279c-.33-1.235.404-2.503 1.64-2.834z"/><path fill="#F6F6F6" d="M25.038 31.014h52.933c1.67 0 3.024 1.343 3.024 3v38.996c0 1.656-1.354 2.999-3.024 2.999h-52.933c-1.671 0-3.024-1.343-3.024-2.999v-38.996c0-1.658 1.353-3 3.024-3z"/><path fill="#A3E0F5" d="M28.309 34.991h46.36c1.28 0 2.317 1.036 2.317 2.313v32.383c0 1.277-1.037 2.312-2.317 2.312h-46.36c-1.28 0-2.318-1.035-2.318-2.312v-32.382c-.001-1.278 1.037-2.314 2.318-2.314z"/><path fill="#3DB39E" d="M30.004 60.99c-1.389 0-2.729.116-4.014.313v8.384c0 1.277 1.038 2.312 2.318 2.312h17.482c.131-.49.219-.989.219-1.502.001-5.25-7.165-9.507-16.005-9.507z"/><path fill="#4BC2AD" d="M76.986 69.688v-12.452c-3.096-.796-6.497-1.236-10.064-1.236-14.402 0-26.077 7.164-26.077 16h33.824c1.28 0 2.317-1.035 2.317-2.312z"/><path fill="#EFC75E" d="M25.99 37.305v11.583c.492.059.99.098 1.498.098 6.902 0 12.498-5.593 12.498-12.493 0-.509-.04-1.009-.099-1.502h-11.578c-1.281 0-2.319 1.036-2.319 2.314z"/><path fill="#1F85A9" d="M77.971 76.009h-52.933c-1.671 0-3.024-1.343-3.024-2.999v-38.996c0-.299.058-.582.14-.854-1.236.377-2.14 1.505-2.14 2.854v38.996c0 1.656 1.354 2.999 3.024 2.999h52.933c1.369 0 2.513-.908 2.885-2.146-.282.086-.575.146-.885.146z"/><path fill="#D5D5D5" d="M22.014 66.792v-32.778c0-.299.058-.582.14-.854-1.236.377-2.14 1.505-2.14 2.854v23.314l2 7.464z"/><path fill="#3F7490" d="M21.014 33.806c-.611.545-1 1.327-1 2.208v7.948l2 7.464v-17.412c0-.168.021-.33.052-.489l-1.052.281z"/></svg>

<svg xmlns="http://www.w3.org/2000/svg" width="100" height="100" viewBox="0 0 100 100"><path fill="#2394BC" d="M50 0c27.614 0 50 22.386 50 50s-22.386 50-50 50S0 77.614 0 50 22.386 0 50 0z"/><path fill="#EDEDED" d="M15.592 31.14l51.13-13.698c1.612-.433 3.27.514 3.697 2.114L80.51 57.223c.43 1.6-.53 3.248-2.145 3.68l-51.13 13.7c-1.612.433-3.27-.514-3.697-2.114L13.447 34.82c-.43-1.6.532-3.247 2.145-3.68z"/><path fill="#4681A0" d="M19.78 34.137l44.78-12c1.237-.33 2.508.4 2.838 1.635l8.382 31.28c.33 1.233-.403 2.503-1.64 2.834l-44.78 12c-1.237.33-2.51-.4-2.84-1.636l-8.38-31.28c-.33-1.234.404-2.502 1.64-2.833z"/><path fill="#F6F6F6" d="M25.038 31.014H77.97c1.67 0 3.025 1.343 3.025 3V73.01c0 1.656-1.354 3-3.024 3H25.04c-1.67 0-3.024-1.344-3.024-3V34.014c0-1.658 1.353-3 3.024-3z"/><path fill="#A3E0F5" d="M28.31 34.99h46.36c1.28 0 2.316 1.037 2.316 2.314v32.383c0 1.277-1.037 2.312-2.317 2.312H28.31c-1.28 0-2.32-1.036-2.32-2.313V37.305c0-1.278 1.038-2.314 2.32-2.314z"/><path fill="#3DB39E" d="M30.004 60.99c-1.39 0-2.73.116-4.014.313v8.384c0 1.277 1.038 2.312 2.318 2.312H45.79c.13-.49.22-.99.22-1.503 0-5.25-7.166-9.507-16.006-9.507z"/><path fill="#4BC2AD" d="M76.986 69.688V57.236C73.89 56.44 70.49 56 66.922 56c-14.402 0-26.077 7.164-26.077 16H74.67c1.28 0 2.316-1.035 2.316-2.312z"/><path fill="#EFC75E" d="M25.99 37.305v11.583c.492.06.99.098 1.498.098 6.902 0 12.498-5.593 12.498-12.493 0-.51-.04-1.01-.1-1.502H28.31c-1.282 0-2.32 1.037-2.32 2.315z"/><path fill="#1F85A9" d="M77.97 76.01H25.04c-1.67 0-3.024-1.344-3.024-3V34.014c0-.3.058-.582.14-.854-1.236.377-2.14 1.505-2.14 2.854V75.01c0 1.656 1.354 3 3.024 3H75.97c1.37 0 2.514-.91 2.886-2.147-.282.086-.575.146-.885.146z"/><path fill="#D5D5D5" d="M22.014 66.792V34.014c0-.3.058-.582.14-.854-1.236.377-2.14 1.505-2.14 2.854v23.314l2 7.464z"/><path fill="#3F7490" d="M21.014 33.806c-.61.545-1 1.327-1 2.208v7.948l2 7.464V34.014c0-.168.02-.33.052-.49l-1.052.282z"/></svg>
